packages/tokens/icons/equalStrikethroughDiamond/size16Px.svg

<svg viewBox="0 0 16 16" fill="none" xmlns="http://www.w3.org/2000/svg" width="1em" height="1em"><path d="M6.23223 2.00443C7.20854 1.02812 8.79146 1.02812 9.76777 2.00443L14.0104 6.24707C14.9867 7.22339 14.9867 8.8063 14.0104 9.78261L9.76777 14.0252C8.79146 15.0016 7.20854 15.0016 6.23223 14.0252L1.98959 9.78261C1.01328 8.8063 1.01328 7.22338 1.98959 6.24707L6.23223 2.00443Z" stroke="currentColor"/><path fill-rule="evenodd" clip-rule="evenodd" d="M4.5 7H11.5C11.7761 7 12 6.77614 12 6.5C12 6.22386 11.7761 6 11.5 6L4.5 6C4.22386 6 4 6.22386 4 6.5C4 6.77614 4.22386 7 4.5 7ZM4.5 10L11.5 10C11.7761 10 12 9.77615 12 9.5C12 9.22386 11.7761 9 11.5 9L4.5 9C4.22386 9 4 9.22386 4 9.5C4 9.77615 4.22386 10 4.5 10Z" fill="currentColor"/><path d="M9.50008 4.49999L6.5 11.5" stroke="currentColor" stroke-linecap="round"/></svg>

<svg xmlns="http://www.w3.org/2000/svg" fill="none" viewBox="0 0 16 16" width="1em" height="1em"><path stroke="currentColor" d="M6.232 2.004a2.5 2.5 0 0 1 3.536 0l4.242 4.243a2.5 2.5 0 0 1 0 3.536l-4.242 4.242a2.5 2.5 0 0 1-3.536 0L1.99 9.783a2.5 2.5 0 0 1 0-3.536l4.242-4.243Z"/><path fill="currentColor" fill-rule="evenodd" d="M4.5 7h7a.5.5 0 0 0 0-1h-7a.5.5 0 0 0 0 1Zm0 3h7a.5.5 0 0 0 0-1h-7a.5.5 0 0 0 0 1Z" clip-rule="evenodd"/><path stroke="currentColor" stroke-linecap="round" d="m9.5 4.5-3 7"/></svg>
